!!!!SEGMENT: pl-cz--iii-273--004_gotschalk-filip--vesperae-in-d-nisi.krn
!!!cenid: 18xx:148
!!!COM: Gotschalk, Filip
!!!COM-rismid: pe30020320
!!!CDT: 1760-1809
!!!CNT:
!!!OTL: Vesperae in D - Nisi Dominus
!!!PDT:
!!!AGN: Sacred; Vespers
!!!SMS-siglum: PL-CZ
!!!SMS-shelfmark: III-273
!!!SMS-shelfwork: 001-004 M
!!!NIFC-rismid:
!!!URL-scan: http://repozytorium.nifc.pl/skany/pl-cz-nut--iii-273
!!!ONB-nifc:
**kern	**fba	**dynam	**kern	**dynam	**kern	**dynam	**kern	**text	**kern	**text	**kern	**text	**kern	**text	**kern	**kern
*part9	*	*part9	*part8	*part8	*part7	*part7	*part6	*part6	*part5	*part5	*part4	*part4	*part3	*part3	*part2	*part1
*staff9	*	*	*staff8	*	*staff7	*	*staff6	*staff6	*staff5	*staff5	*staff4	*staff4	*staff3	*staff3	*staff2	*staff1
*I"Organo	*	*	*I"Violino Secondo.	*	*I"Violino Primo	*	*I"Basſo.	*	*I"Tenore.	*	*I"Alto	*	*I"Canto	*	*I"Clarino Secondo in C.	*I"Clarino Primo in C
*I'Org	*	*	*I'Vn II	*	*I'Vn I	*	*I'B	*	*I'T	*	*I'A	*	*I'C	*	*I'Clno II	*I'Clno I
*clefF4	*	*	*clefG2	*	*clefG2	*	*clefF4	*	*clefC4	*	*clefC3	*	*clefC1	*	*clefG2	*clefG2
*k[]	*	*	*k[]	*	*k[]	*	*k[]	*	*k[]	*	*k[]	*	*k[]	*	*k[]	*k[]
*C:	*	*	*C:	*	*C:	*	*C:	*	*C:	*	*C:	*	*C:	*	*C:	*C:
*M4/4	*	*	*M4/4	*	*M4/4	*	*M4/4	*	*M4/4	*	*M4/4	*	*M4/4	*	*M4/4	*M4/4
*met(c)	*	*	*met(c)	*	*met(c)	*	*met(c)	*	*met(c)	*	*met(c)	*	*met(c)	*	*met(c)	*met(c)
=1	=1	=1	=1	=1	=1	=1	=1	=1	=1	=1	=1	=1	=1	=1	=1	=1
*	*	*	*	*	*16\right	*below	*	*	*	*	*16\right	*	*	*	*	*
!LO:TX:a:i:t=Moderato.	!	!	!	!	!	!	!	!	!	!	!	!	!	!	!	!
!LO:TX:a:i:t=Tutti.	!	!	!LO:TX:a:i:t=Moderato	!	!LO:TX:a:i:t=Moderato.	!	!LO:TX:a:i:t=Moderato.	!	!	!	!LO:TX:a:i:t=Moderato.	!	!	!	!LO:TX:a:i:t=Moderato	!LO:TX:a:i:t=Moderato
8C/	.	.	(16e/LL	.	(16cc\LL	.	8c\	Ni-	8G/	Ni-	16e\LL	Ni-	16cc\LL	Ni-	8e/L	8cc\L
!	!	!	!	!	!	!LO:DY:b:t=for	!	!	!	!	!	!	!	!	!	!
.	.	.	16d/	.	16b\	f	.	.	.	.	16d\JJ	.	16b\JJ	.	.	.
8r	.	.	16e/	.	16cc\	.	8c\	-si-	8G/	-si-	16e\LL	-si	16cc\LL	-si	16e/L	16cc\L
.	.	.	16f/JJ)	.	16dd\JJ)	.	.	.	.	.	16f\JJ	.	16dd\JJ	.	16e/JJ	16cc\JJ
8C/	.	.	(16g/LL	.	(16ee\LL	.	16c\	-Do-	16G/	-Do-	16g\LL	Do-	16ee\LL	Do-	4e/	4cc\
.	.	.	16e/	.	16cc\	.	16C/	-mi-	16G/	-mi-	16e\JJ	.	16cc\JJ	.	.	.
8r	.	.	16f/	.	16dd\	.	8C/	-nus	8G/	-nus	16f\	-mi-	16dd\	-mi-	.	.
.	.	.	16g/JJ)	.	16ee\JJ)	.	.	.	.	.	16g\	-nus	16ee\	-nus	.	.
!LO:TX:a:i:t=P:problem:mixed beam	!	!	!	!	!	!	!	!	!	!	!	!	!	!	!	!
*	*	*	*	*	*8\right	*	*	*	*	*	*8\right	*	*	*	*	*
8C/L	4 6	.	8a/	.	8ff\	.	8c\	ae-	8d\	ae-	8a\	ae-	8ff\	ae-	2r	2r
*16\right	*	*	*	*	*4\right	*	*	*	*	*	*	*	*	*	*	*
16c\L	.	.	4a/	.	4ff\	.	16c\	-di-	16d\	-di-	16a\	-di-	16ff\	-di-	.	.
16B\JJ	_ _	.	.	.	.	.	16B\	-fi-	16d\	-fi-	16a\	-fi-	16ff\	-fi-	.	.
*16\right	*	*	*	*	*	*	*	*	*	*	*	*	*	*	*	*
!LO:TX:a:i:t=P:problem:mixed beam	!	!	!	!	!	!	!	!	!	!	!	!	!	!	!	!
8c\L	.	.	.	.	.	.	16c\	-ca-	16d\	-ca-	8a\	-ca-	8ff\	-ca-	.	.
.	.	.	.	.	.	.	16C/	-ve-	16d\	-ve-	.	.	.	.	.	.
8C/J	X 5	.	16g/LL	.	16ee\LL	.	8C/	-rit	8d\	-runt	16g\	-ve-	16ee\	-ve-	.	.
.	.	.	16a/JJ	.	16ff\JJ	.	.	.	.	.	16a\	-rit	16ff\	-rit	.	.
=2	=2	=2	=2	=2	=2	=2	=2	=2	=2	=2	=2	=2	=2	=2	=2	=2
!LO:TX:a:i:t=P:problem:mixed beam	!	!	!	!	!	!	!	!	!	!	!	!	!	!	!	!
.	.	.	.	.	16qqee/	.	.	.	.	.	.	.	.	.	.	.
8G\L	.	.	8f/L	.	8dd\L	.	8G\	Do-	8G/	Do-	8f\	Do-	8dd\	Do-	8r	8r
8C/J	.	.	8e/J	.	8cc\J	.	8C/	-mum,	8G/	-mum	8e\	-mum	8cc\	-mum	16e/LL	16cc\LL
.	.	.	.	.	.	.	.	.	.	.	.	.	.	.	16e/JJ	16cc\JJ
!	!	!	!LO:TX:a:i:t=P:problem:mixed beam	!	!	!	!	!	!	!	!	!	!	!	!	!
16C\LL	.	.	16e/LL	.	4r	.	4r	.	4r	.	4r	.	4r	.	8e/L	8cc\L
*	*	*	*16\rigth	*	*	*	*	*	*	*	*	*	*	*	*	*
16c\	.	.	16ee\	.	.	.	.	.	.	.	.	.	.	.	.	.
16G\	.	.	16cc\	.	.	.	.	.	.	.	.	.	.	.	8g/J	16ee\L
16E\JJ	.	.	16g\JJ	.	.	.	.	.	.	.	.	.	.	.	.	16dd\JJ
!	!	!	!LO:LB:g=original	!	!	!	!LO:LB:g=original	!	!LO:LB:g=original	!	!LO:LB:g=original	!	!LO:LB:g=original	!	!	!
8C/	.	.	(16cc\LL	.	16ee\LL	.	4c\	in	4G/	in	16e\LL	in	16cc\LL	in	4e/	4cc\
.	.	.	16b\	.	(16dd\	.	.	.	.	.	16d\	.	16b\	.	.	.
8r	.	.	16cc\	.	16ee\	.	.	.	.	.	16e\	.	16cc\	.	.	.
.	.	.	16dd\JJ)	.	16ff\JJ	.	.	.	.	.	16f\JJ	.	16dd\JJ	.	.	.
!	!	!	!	!	!LO:LB:g=original	!	!	!	!	!	!	!	!	!	!	!
8c\	.	.	(16ee\LL	.	16gg\LL)	.	8c\	va-	8G/	va-	16g\LL	va-	16ee\LL	va-	4r	4r
.	.	.	16cc\	.	(16ee\	.	.	.	.	.	16e\JJ	.	16cc\JJ	.	.	.
8r	.	.	16dd\	.	16ff\	.	8C/	-num	8G/	-num	16f\LL	-num-	16dd\LL	-num-	.	.
.	.	.	16ee\JJ)	.	16gg\JJ)	.	.	.	.	.	16g\JJ	.	16ee\JJ	.	.	.
!LO:LB:g=original	!	!	!	!	!	!	!	!	!	!	!	!	!	!	!	!
=3	=3	=3	=3	=3	=3	=3	=3	=3	=3	=3	=3	=3	=3	=3	=3	=3
*	*	*	*8\right	*	*	*	*	*	*	*	*	*	*	*ij	*	*
8c\L	.	.	8ff\	.	8aa\	.	8c\	va-	8c\	va-	8a\	-va-	8ff\	-va-	2r	2r
*	*	*	*4\right	*	*	*	*	*	*	*	*	*	*	*	*	*
16c\L	.	.	4ff\	.	4aa\	.	16c\LL	-num	16c\LL	-num	8a\	-num	8ff\	-num	.	.
16B\JJ	.	.	.	.	.	.	16B\JJ	.	16B\JJ	.	.	.	.	.	.	.
*	*	*	*	*	*	*	*	*	*	*	*	*	*	*Xij	*	*
!LO:TX:a:i:t=P:problem:mixed beam	!	!	!	!	!	!	!	!	!	!	!	!	!	!	!	!
8c\L	.	.	.	.	.	.	8c\	la-	8c\	la-	8a\	la-	8ff\	la-	.	.
8C/J	.	.	(16ee\LL	.	16gg\LL	.	16c\	-bo-	16c\	-bo-	16g\	-bo-	16ee\	-bo-	.	.
.	.	.	16ff\JJ)	.	16aa\JJ	.	16c\	-ra-	16c\	-ra-	16a\	-ra-	16ff\	-ra-	.	.
!LO:TX:a:i:t=P:problem:mixed beam	!	!	!	!	!	!	!	!	!	!	!	!	!	!	!	!
.	.	.	.	.	8qqgg/	.	.	.	.	.	.	.	.	.	.	.
8G\L	.	.	8dd\L	.	8ff\L	.	8G\	-ve-	8G/	-ve-	8f\	-ve-	8dd\	-ve-	8r	8r
8C/J	.	.	8cc\J	.	8ee\J	.	8C/	-runt,	8G/	-runt	8e\	-runt	8cc\	-runt	16cc\LL	16ee\LL
.	.	.	.	.	.	.	.	.	.	.	.	.	.	.	16cc\JJ	16ee\JJ
!LO:TX:a:i:t=P:problem:mixed beam	!	!	!LO:TX:a:i:t=P:problem:mixed beam	!	!	!	!	!	!	!	!	!	!	!	!	!
16C/LL	.	.	16e/LL	.	4r	.	4r	.	4r	.	4r	.	4r	.	8cc\L	8ee\L
16c\	.	.	16ee\	.	.	.	.	.	.	.	.	.	.	.	.	.
16G\	.	.	16cc\	.	.	.	.	.	.	.	.	.	.	.	16ee\L	16gg\L
16E\JJ	.	.	16g\JJ	.	.	.	.	.	.	.	.	.	.	.	16dd\JJ	16ff\JJ
=4	=4	=4	=4	=4	=4	=4	=4	=4	=4	=4	=4	=4	=4	=4	=4	=4
!LO:TX:a:i:t=P:problem:mixed beam	!	!	!	!	!	!	!	!	!	!	!	!	!	!	!	!
!	!	!LO:DY:b:t=piano	!	!	!	!LO:DY:t=pia	!LO:TX:a:i:t=2.	!	!LO:TX:a:i:t=2	!	!LO:TX:a:i:t=2	!	!LO:TX:a:i:t=2	!	!	!
8C/L	.	p	(16cc\LL	.	(16ee\LL	p	0r	.	0r	.	0r	.	0r	.	4cc\	4ee\
.	.	.	16dd\	.	16ff\	.	.	.	.	.	.	.	.	.	.	.
8c\J	.	.	16ee\)	.	16gg\	.	.	.	.	.	.	.	.	.	.	.
.	.	.	16ff\JJ	.	16aa\JJ)	.	.	.	.	.	.	.	.	.	.	.
16c\LL	.	.	(16ee\LL	.	4gg\	.	.	.	.	.	.	.	.	.	4r	4r
16B\	.	.	16dd\	.	.	.	.	.	.	.	.	.	.	.	.	.
16c\	.	.	16ee\)	.	.	.	.	.	.	.	.	.	.	.	.	.
16B\JJ	.	.	16dd\JJ	.	.	.	.	.	.	.	.	.	.	.	.	.
8c\L	.	.	(16aa\LL	.	(16ccc\LL	.	.	.	.	.	.	.	.	.	2r	2r
.	.	.	16gg\	.	16bb\	.	.	.	.	.	.	.	.	.	.	.
8c\J	.	.	16ff\)	.	16aa\	.	.	.	.	.	.	.	.	.	.	.
.	.	.	16ee\JJ	.	16gg\JJ)	.	.	.	.	.	.	.	.	.	.	.
16c\LL	.	.	4ee\	.	4gg\	.	.	.	.	.	.	.	.	.	.	.
16G\	.	.	.	.	.	.	.	.	.	.	.	.	.	.	.	.
16E\	.	.	.	.	.	.	.	.	.	.	.	.	.	.	.	.
16C\JJ	.	.	.	.	.	.	.	.	.	.	.	.	.	.	.	.
=5	=5	=5	=5	=5	=5	=5	=5	=5	=5	=5	=5	=5	=5	=5	=5	=5
!LO:TX:a:i:t=P:problem:mixed beam	!	!	!	!	!	!	!	!	!	!	!	!	!	!	!	!
8G\L	.	.	16b\LL	.	(16dd\LL	.	.	.	.	.	.	.	.	.	1r	1r
.	.	.	16cc\	.	16ee\	.	.	.	.	.	.	.	.	.	.	.
8GG/J	.	.	16dd\	.	16ff\	.	.	.	.	.	.	.	.	.	.	.
.	.	.	16ee\JJ	.	16gg\JJ)	.	.	.	.	.	.	.	.	.	.	.
16G\LL	7	.	4dd\	.	4ff\	.	.	.	.	.	.	.	.	.	.	.
16d\	.	.	.	.	.	.	.	.	.	.	.	.	.	.	.	.
16B\	.	.	.	.	.	.	.	.	.	.	.	.	.	.	.	.
16A\JJ	.	.	.	.	.	.	.	.	.	.	.	.	.	.	.	.
!LO:TX:a:i:t=P:problem:mixed beam	!	!	!	!	!	!	!	!	!	!	!	!	!	!	!	!
8G\L	.	.	8g/L 8dd/	.	16bb\LL	.	.	.	.	.	.	.	.	.	.	.
.	.	.	.	.	(16aa\	.	.	.	.	.	.	.	.	.	.	.
8GG/J	.	.	8g/J 8dd/	.	16gg\	.	.	.	.	.	.	.	.	.	.	.
.	.	.	.	.	16ff\JJ)	.	.	.	.	.	.	.	.	.	.	.
16G\LL	.	.	4g/ 4dd/	.	4ff\	.	.	.	.	.	.	.	.	.	.	.
16d\	.	.	.	.	.	.	.	.	.	.	.	.	.	.	.	.
16B\	.	.	.	.	.	.	.	.	.	.	.	.	.	.	.	.
16G\JJ	.	.	.	.	.	.	.	.	.	.	.	.	.	.	.	.
!	!	!	!	!	!LO:TX:a:i:t=Volti Tutti	!	!	!	!	!	!	!	!	!	!	!
!LO:LB:g=original	!	!	!LO:LB:g=original	!	!LO:PB:g=original	!	!	!	!	!	!	!	!	!	!	!
=6	=6	=6	=6	=6	=6	=6	=6	=6	=6	=6	=6	=6	=6	=6	=6	=6
!LO:TX:a:i:t=P:problem:mixed beam	!	!	!	!	!	!	!	!	!	!	!	!	!	!	!	!
!LO:TX:a:i:t=Tutti	!	!	!	!	!LO:TX:a:i:t=Tutti	!	!	!	!	!	!	!	!	!	!	!
8c\L	.	.	16G/LL 16e/	f	8ee\L	.	8c\	qui	8c\	qui	8g\	qui	8ee\	qui	4cc\	4ee\
.	.	.	16g/	.	.	.	.	.	.	.	.	.	.	.	.	.
8C/J	.	.	16G/ 16e/	.	8cc\J	.	8C/	ae-	8c\	ae-	8g\	ae-	8cc\	ae-	.	.
.	.	.	16g/JJ	.	.	.	.	.	.	.	.	.	.	.	.	.
!	!	!	!LO:TX:a:i:t=P:problem:mixed beam	!	!	!	!	!	!	!	!	!	!	!	!	!
!	!	!	!	!	!	!	!	!	!	!	!	!	!LO:LB:g=original	!	!	!
8C/L	.	.	(16cc\LL	.	16ee\LL	.	16c\	-di-	16c\	-di-	16g\	-di-	16ee\	-di-	8cc\L	8ee\L
.	.	.	16g/	.	16cc\	.	16c\	-fi-	16c\	-fi-	16g\	-fi-	16ee\	-fi-	.	.
8C/J	.	.	16e/	.	16ee\	.	8c\	-cant	8c\	-cant	8g\	-cant	8ee\	-cant	8ee\J	8gg\J
.	.	.	16g/JJ)	.	16gg\JJ	.	.	.	.	.	.	.	.	.	.	.
!LO:TX:a:i:t=P:problem:mixed beam	!	!	!	!	!	!	!	!	!	!	!	!	!	!	!LO:TX:a:i:t=P:problem:mixed beam	!
!	!	!	!	!	!	!	!	!	!	!	!LO:LB:g=original	!	!	!	!LO:LB:g=original	!LO:LB:g=original
*	*	*	*	*	*	*	*	*	*	*	*4\right	*	*	*	*	*
8G\L	.	.	(16d/LL	.	8ff\L	.	4G\	e-	8d\	e-	4g\	e-	8ff\L	e-	8dd\L	8ff\L
.	.	.	16b/	.	.	.	.	.	.	.	.	.	.	.	.	.
8GG/J	.	.	16g/	.	8dd\J	.	.	.	8f\	.	.	.	8dd\J	.	8g/J	8dd\J
.	.	.	16b/JJ)	.	.	.	.	.	.	.	.	.	.	.	.	.
16G\LL	.	.	(16dd\LL	.	4dd\	.	4G\	-am	4f\	-am	4g\	-am	4dd\	-am	4g/	4dd\
16G\	.	.	16b\	.	.	.	.	.	.	.	.	.	.	.	.	.
16A\	.	.	16cc\	.	.	.	.	.	.	.	.	.	.	.	.	.
16B\JJ	.	.	16dd\JJ)	.	.	.	.	.	.	.	.	.	.	.	.	.
!	!	!	!	!	!	!	!LO:LB:g=original	!	!	!	!	!	!	!	!	!
=7	=7	=7	=7	=7	=7	=7	=7	=7	=7	=7	=7	=7	=7	=7	=7	=7
*2\right	*	*	*	*	*	*	*	*	*	*	*	*	*	*	*	*
*tremolo	*	*	*	*	*	*	*	*	*	*	*	*	*	*	*	*
!	!	!	!	!	!	!	!LO:TX:a:i:t=1.	!	!LO:TX:a:i:t=1	!	!LO:TX:a:i:t=1.	!	!	!	!	!
8c\L	.	.	16G/LL 16e/	.	(16ee\LL	.	1r	.	1r	.	1r	.	1r	.	8cc\	8ee\
.	.	.	16g/	.	16cc\	.	.	.	.	.	.	.	.	.	.	.
8c\	.	.	16G/ 16e/	.	16g\	.	.	.	.	.	.	.	.	.	8r	8r
.	.	.	16g/JJ	.	16cc\JJ)	.	.	.	.	.	.	.	.	.	.	.
!	!	!	!LO:TX:a:i:t=P:problem:mixed beam	!	!	!	!	!	!	!	!	!	!	!	!	!
8c\	.	.	16cc\LL	.	(16ee\LL	.	.	.	.	.	.	.	.	.	8ee\	8gg\
.	.	.	(16g/	.	16gg\	.	.	.	.	.	.	.	.	.	.	.
8c\J	.	.	16e/	.	16ccc\	.	.	.	.	.	.	.	.	.	8r	8r
.	.	.	16g/JJ)	.	16aa\JJ)	.	.	.	.	.	.	.	.	.	.	.
*Xtremolo	*	*	*	*	*	*	*	*	*	*	*	*	*	*	*	*
!	!	!	!	!	!	!	!	!	!	!	!	!	!	!	!LO:TX:a:i:t=P:problem:mixed beam	!
8G\L	.	.	16d/LL	.	16gg\LL	.	.	.	.	.	.	.	.	.	8dd\L	8ff\L
.	.	.	(16b/	.	16ff\J	.	.	.	.	.	.	.	.	.	.	.
8G\J	.	.	16g/	.	8dd\J	.	.	.	.	.	.	.	.	.	8g/J	8dd\J
.	.	.	16b/JJ)	.	.	.	.	.	.	.	.	.	.	.	.	.
16G\LL	.	.	(16dd\LL	.	4dd\	.	.	.	.	.	.	.	.	.	4g/	4dd\
16G\	.	.	16b\	.	.	.	.	.	.	.	.	.	.	.	.	.
16A\	.	.	16cc\	.	.	.	.	.	.	.	.	.	.	.	.	.
16B\JJ	.	.	16dd\JJ)	.	.	.	.	.	.	.	.	.	.	.	.	.
=8	=8	=8	=8	=8	=8	=8	=8	=8	=8	=8	=8	=8	=8	=8	=8	=8
!!pagebreak:original
!	!	!	!	!	!LO:TUP:a:problem:klamra łukowa	!	!	!	!	!	!	!	!	!	!	!
8c\L	.	.	16G/KL 16g/	.	24ee\LL	.	8c\	Ni-	8c\	cum	16g\	va-	8ee\	Ni-	4cc\	4ee\
.	.	.	.	.	24ff\	.	.	.	.	.	.	.	.	.	.	.
!	!	!	!LO:TX:a:i:t=P:problem:dolny dźwięk g zapisany za pomocą przenośnika oktawowego	!	!	!	!	!	!	!	!	!	!	!	!	!
.	.	.	8G/ 8g/	.	.	.	.	.	.	.	16g\	-num	.	.	.	.
.	.	.	.	.	24ee\J	.	.	.	.	.	.	.	.	.	.	.
8G\J	.	.	.	.	8cc\J	.	8G\	-si	8e\	cum	8g\	est	8cc\	-si	.	.
.	.	.	8G/ 8g/	.	.	.	.	.	.	.	.	.	.	.	.	.
!	!	!	!	!	!	!	!	!	!	!	!	!	!	!	!LO:TX:a:i:t=P:problem:mixed beam	!
!	!	!	!	!	!LO:TUP:a:problem:klamra łukowa	!	!	!	!	!	!	!	!	!	!	!
8d\L	6 5	.	.	.	24ff\LL	.	16d\	Do-	16d\	de-	8g\	vo-	16ff\	Do-	8dd\L	8ff\L
.	.	.	.	.	24gg\	.	.	.	.	.	.	.	.	.	.	.
.	.	.	8G/ 8g/	.	.	.	16d\	-mi-	16d\	-de-	.	.	16ff\	-mi-	.	.
.	.	.	.	.	24ff\J	.	.	.	.	.	.	.	.	.	.	.
8G\J	.	.	.	.	8dd\J	.	8G\	-nus	16B\	-rit	8g\	-bis	8dd\	-nus	8g/J	8dd\J
.	.	.	16G/Jk 16g/	.	.	.	.	.	16B\	di-	.	.	.	.	.	.
!	!	!	!	!	!LO:TUP:a:problem:klamra łukowa	!	!	!	!	!	!	!	!	!	!	!
8c\L	.	.	16G/LL	.	24ee\LL	.	8c\	cus-	8c\	-lec-	16g\	an-	8ee\	cus-	4cc\	4ee\
.	.	.	.	.	24ff\	.	.	.	.	.	.	.	.	.	.	.
.	.	.	16g/	.	.	.	.	.	.	.	16g\	-te	.	.	.	.
.	.	.	.	.	24ee\J	.	.	.	.	.	.	.	.	.	.	.
8G\J	.	.	16G/	.	8cc\J	.	16c\	-to-	8e\	-tis	16g\	lu-	16cc\	-to-	.	.
.	.	.	16g/JJ	.	.	.	16G\	-di-	.	.	16g\	-cem	16cc\	-di-	.	.
!	!	!	!	!	!LO:TUP:a:problem:klamra łukowa	!	!	!	!	!	!	!	!	!	!LO:TX:a:i:t=P:problem:mixed beam	!
!	!	!	!LO:LB:g=original	!	!	!	!	!	!	!	!	!	!	!	!	!
8d\L	6 5	.	16G/LL	.	24ff\LL	.	8d\	-e-	8d\	su-	16g\	sur-	8ff\	-e-	8dd\L	8ff\L
.	.	.	.	.	24gg\	.	.	.	.	.	.	.	.	.	.	.
.	.	.	16g/	.	.	.	.	.	.	.	16g\	-ge-	.	.	.	.
.	.	.	.	.	24ff\J	.	.	.	.	.	.	.	.	.	.	.
8G\J	.	.	16G/	.	8dd\J	.	8G\	-rit,	8B\	-is	8g\	-re	8dd\	-rit	8g/J	8dd\J
.	.	.	16g/JJ	.	.	.	.	.	.	.	.	.	.	.	.	.
!	!	!	!	!	!LO:LB:g=original	!	!	!	!	!	!	!	!LO:LB:g=original	!	!	!
=9	=9	=9	=9	=9	=9	=9	=9	=9	=9	=9	=9	=9	=9	=9	=9	=9
!LO:TX:a:i:t=P:problem:mixed beam	!	!	!	!LO:TUP:a:problem:klamra łukowa	!	!	!	!	!	!	!	!	!	!	!	!
8C/L	.	.	16G/KL 16g/	.	24ee\LL	.	8c\	ci-	8c\	som-	16g\	sur-	8ee\	ci-	4cc\	4ee\
.	.	.	.	.	24ff\	.	.	.	.	.	.	.	.	.	.	.
.	.	.	8G/ 8g/	.	.	.	.	.	.	.	16g\	-gi-	.	.	.	.
.	.	.	.	.	24ee\J	.	.	.	.	.	.	.	.	.	.	.
8c\	.	.	.	.	8gg\J	.	8c\	-vi-	8c\	-num	8g\	-te	8ee\	-vi-	.	.
.	.	.	16G/Jk 16g/	.	.	.	.	.	.	.	.	.	.	.	.	.
!	!	!	!	!	!	!	!	!	!	!	!LO:LB:g=original	!	!	!	!	!
!	!	!	!	!	!LO:TUP:a:problem:klamra łukowa	!	!	!	!	!	!	!	!	!	!	!
8c\	#4 2	.	16d/KL 16a/	.	24ff#X\LL	.	8c\	-ta-	8f#X\	ec-	8a\	post-	8dd\	-ta-	4r	4r
.	.	.	.	.	24gg\	.	.	.	.	.	.	.	.	.	.	.
.	.	.	8d/ 8a/	.	.	.	.	.	.	.	.	.	.	.	.	.
.	.	.	.	.	24ff#\J	.	.	.	.	.	.	.	.	.	.	.
8c\J	.	.	.	.	8aa\J	.	8c\	-tem	16f#\	-ce	16a\	-quam	8dd\	-tem	.	.
.	.	.	16d/Jk 16a/	.	.	.	.	.	16f#\	he-	16a\	se-	.	.	.	.
!	!	!	!	!	!	!	!	!	!LO:LB:g=original	!	!	!	!	!	!	!
8B\L	6	.	16d\KL 16dd\	.	24gg\LL	.	8B\	fru-	16d\	-re-	16g\	-de-	8dd\	fru-	2r	2r
.	.	.	.	.	24aa\	.	.	.	.	.	.	.	.	.	.	.
.	.	.	8d\ 8dd\	.	.	.	.	.	16d\	-di-	16b\	-ri-	.	.	.	.
.	.	.	.	.	24gg\J	.	.	.	.	.	.	.	.	.	.	.
8G\J	.	.	.	.	8bb\J	.	8G\	-stra	8d\	-tas	8b\	-tis	8dd\	-stra	.	.
.	.	.	8d\ 8dd\	.	.	.	.	.	.	.	.	.	.	.	.	.
!	!	!	!	!	!	!	!LO:LB:g=original	!	!	!	!	!	!	!	!	!
!	!	!	!	!	!LO:SIC:o=:v:brak oznaczenia trioli	!	!	!	!	!	!	!	!	!	!	!
8F#X\L	6	.	.	.	24aa\LL	.	16F#X\	vi-	16d\	Do-	4a\	qui	16dd\	vi-	.	.
.	.	.	.	.	24bb\	.	.	.	.	.	.	.	.	.	.	.
.	.	.	8d\ 8dd\	.	.	.	16F#\	-gi-	16d\	-mi-	.	.	16dd\	-gi-	.	.
.	.	.	.	.	24aa\J	.	.	.	.	.	.	.	.	.	.	.
8F#\J	.	.	.	.	8ccc\J	.	8F#\	-lat	8d\	-ni	.	.	8dd\	-lat	.	.
.	.	.	16dd\Jk	.	.	.	.	.	.	.	.	.	.	.	.	.
!	!	!	!LO:TX:a:i:t=Volti Subito	!	!	!	!	!	!	!	!	!	!	!	!	!
!LO:LB:g=original	!	!	!LO:PB:g=original	!	!	!	!	!	!	!	!	!	!	!	!	!
=10	=10	=10	=10	=10	=10	=10	=10	=10	=10	=10	=10	=10	=10	=10	=10	=10
*tremolo	*	*	*	*	*	*	*	*	*	*	*	*	*	*	*	*
8G\L	.	.	(16b\LL	.	16bb\LL	.	8G\	qui	4d\	fi-	8b\	man-	8dd\	qui	8r	8r
.	.	.	16dd\)	.	16gg\J	.	.	.	.	.	.	.	.	.	.	.
8G\	.	.	(16b\	.	8dd\J	.	8G\	cus-	.	.	8b\	-du-	8dd\	cus-	16g/LL	16dd\LL
.	.	.	16dd\JJ)	.	.	.	.	.	.	.	.	.	.	.	16g/JJ	16dd\JJ
8G\	.	.	(16d/LL 16b/	.	(16dd\LL	.	8G\	-to-	8d\	-li-	8b\	-ca-	8dd\	-to-	4g/	4dd\
.	.	.	16dd/JJ)	.	16gg\	.	.	.	.	.	.	.	.	.	.	.
8G\J	.	.	(16d/LL 16b/	.	16bb\	.	8G\	-dit	8d\	-i	8b\	-tis	8dd\	-dit	.	.
.	.	.	16dd/JJ)	.	16gg\JJ)	.	.	.	.	.	.	.	.	.	.	.
8F#X\L	6 5	.	(16a\LL	.	16ccc\LL	.	4F#X\	e-	4c\	mer-	4a\	pa-	4dd\	e-	2r	2r
.	.	.	16dd\)	.	16aa\J	.	.	.	.	.	.	.	.	.	.	.
8F#\	.	.	(16cc\	.	8dd\J	.	.	.	.	.	.	.	.	.	.	.
.	.	.	16dd\JJ)	.	.	.	.	.	.	.	.	.	.	.	.	.
8F#\	.	.	16a\LL	.	(16dd\LL	.	4F#\	-am	4c\	-ces	4a\	-nem	4dd\	-am	.	.
.	.	.	16dd\	.	16aa\	.	.	.	.	.	.	.	.	.	.	.
8F#\J	.	.	16cc\	.	16ccc\	.	.	.	.	.	.	.	.	.	.	.
.	.	.	16dd\JJ	.	16aa\JJ)	.	.	.	.	.	.	.	.	.	.	.
=11	=11	=11	=11	=11	=11	=11	=11	=11	=11	=11	=11	=11	=11	=11	=11	=11
8G\L	.	.	16b\LL	.	(16bb\LL	.	8G\	qui	8d\	fruc-	4b\	pa-	8dd\	qui	8r	8r
.	.	.	16dd\	.	16gg\J)	.	.	.	.	.	.	.	.	.	.	.
8G\	.	.	16b\	.	8dd\J	.	8G\	cus-	8d\	-tus	.	.	8dd\	cus-	16g/LL	16dd\LL
.	.	.	16dd\JJ	.	.	.	.	.	.	.	.	.	.	.	16g/JJ	16dd\JJ
!	!	!	!	!	!	!	!	!	!	!	!	!	!LO:LB:g=original	!	!	!
*	*	*	*rep	*	*	*	*	*	*	*	*	*	*	*	*	*
8G\	.	.	16b\LL	.	(16dd\LL	.	8G\	-to-	8d\	fruc-	8b\	-nem	8dd\	-to-	4g/	4dd\
.	.	.	16dd\	.	16ddd\	.	.	.	.	.	.	.	.	.	.	.
8G\J	.	.	16b\	.	16bb\	.	8G\	-dit	8d\	-tus	8b\	do-	8dd\	-dit	.	.
.	.	.	16dd\JJ	.	16ddd\JJ)	.	.	.	.	.	.	.	.	.	.	.
*	*	*	*Xrep	*	*	*	*	*	*	*	*	*	*	*	*	*
!	!	!	!	!	!LO:LB:g=original	!	!	!	!	!	!	!	!	!	!	!
8F#X\L	6 5	.	(16a\LL	.	16ccc\LL	.	4F#X\	e-	4c\	ven-	4a\	-lo-	4dd\	e-	2r	2r
.	.	.	16dd\)	.	16aa\J	.	.	.	.	.	.	.	.	.	.	.
8F#\	.	.	(16cc\	.	8dd\J	.	.	.	.	.	.	.	.	.	.	.
.	.	.	16dd\JJ)	.	.	.	.	.	.	.	.	.	.	.	.	.
*	*	*	*rep	*	*	*	*	*	*	*	*	*	*	*	*	*
8F#\	.	.	(16a\LL	.	(16dd\LL	.	4F#\	-am	4c\	-tris	4a\	-ris	4dd\	-am	.	.
.	.	.	16dd\)	.	16ccc\)	.	.	.	.	.	.	.	.	.	.	.
8F#\J	.	.	(16cc\	.	(16aa\	.	.	.	.	.	.	.	.	.	.	.
.	.	.	16dd\JJ)	.	16ccc\JJ)	.	.	.	.	.	.	.	.	.	.	.
*	*	*	*Xrep	*	*	*	*	*	*	*	*	*	*	*	*	*
!	!	!	!	!	!	!	!	!	!LO:LB:g=original	!	!LO:LB:g=original	!	!	!	!	!
=12	=12	=12	=12	=12	=12	=12	=12	=12	=12	=12	=12	=12	=12	=12	=12	=12
!	!	!LO:DY:b:t=piano.	!	!LO:DY:b:t=piano	!	!	!LO:TX:a:i:t=4	!	!LO:TX:a:i:t=4	!	!LO:TX:a:i:t=Solo	!	!LO:TX:a:i:t=4	!	!LO:TX:a:i:t=4	!LO:TX:a:i:t=4
16G\LL	.	p	8.dd\L	p	8.bb\L	p	00r	.	00r	.	8b\	Si-	00r	.	00r	00r
16G\	.	.	.	.	.	.	.	.	.	.	.	.	.	.	.	.
16G\	.	.	.	.	.	.	.	.	.	.	16b\LL	-cut	.	.	.	.
16G\	.	.	16cc\Jk	.	16aa\Jk	.	.	.	.	.	16a\JJ	.	.	.	.	.
16G\	.	.	8b/L	.	8gg\L	.	.	.	.	.	16g\	sa-	.	.	.	.
16G\	.	.	.	.	.	.	.	.	.	.	16g\	-gi-	.	.	.	.
16G\	.	.	8b/J	.	8gg\J	.	.	.	.	.	16g\	-te	.	.	.	.
16G\JJ	.	.	.	.	.	.	.	.	.	.	16g\	in	.	.	.	.
16G\LL	.	.	8.ee\L	.	8.ccc\L	.	.	.	.	.	8.cc\L	ma-	.	.	.	.
16G\	.	.	.	.	.	.	.	.	.	.	.	.	.	.	.	.
16G\	.	.	.	.	.	.	.	.	.	.	.	.	.	.	.	.
16G\	.	.	16dd\Jk	.	16bb\Jk	.	.	.	.	.	16b\Jk	.	.	.	.	.
16G\	.	.	4cc\	.	4aa\	.	.	.	.	.	8a\	-nu	.	.	.	.
16G\	.	.	.	.	.	.	.	.	.	.	.	.	.	.	.	.
16G\	.	.	.	.	.	.	.	.	.	.	8a\	in	.	.	.	.
16G\JJ	.	.	.	.	.	.	.	.	.	.	.	.	.	.	.	.
=13	=13	=13	=13	=13	=13	=13	=13	=13	=13	=13	=13	=13	=13	=13	=13	=13
16D\LL	.	.	8.cc\L	.	8.aa\L	.	.	.	.	.	8.a\L	ma-	.	.	.	.
16D\	.	.	.	.	.	.	.	.	.	.	.	.	.	.	.	.
16D\	.	.	.	.	.	.	.	.	.	.	.	.	.	.	.	.
16D\	.	.	16b\Jk	.	16gg\Jk	.	.	.	.	.	16g\Jk	.	.	.	.	.
16D\	.	.	16a\LL	.	(16ff#X\LL	.	.	.	.	.	(16f\LL	-nu	.	.	.	.
16D\	.	.	16b\J	.	16gg\	.	.	.	.	.	16g\	.	.	.	.	.
16D\	.	.	8cc\J	.	16gg#X\	.	.	.	.	.	16a\JJ)	.	.	.	.	.
16D\JJ	.	.	.	.	16aa\JJ)	.	.	.	.	.	16a\	po-	.	.	.	.
*Xtremolo	*	*	*	*	*	*	*	*	*	*	*	*	*	*	*	*
!	!	!	!LO:LB:g=original	!	!	!	!	!	!	!	!	!	!	!	!	!
8G\L	.	.	8.dd\L	.	8.bb\L	.	.	.	.	.	8.b\L	-ten-	.	.	.	.
8D\J	.	.	.	.	.	.	.	.	.	.	.	.	.	.	.	.
.	.	.	16cc\Jk	.	16aa\Jk	.	.	.	.	.	16a\Jk	.	.	.	.	.
!LO:TX:a:i:t=P:problem:mixed beam	!	!	!	!	!	!	!	!	!	!	!	!	!	!	!	!
16GG/LL	.	.	4d\ 4b\	.	4gg#\	.	.	.	.	.	4g\	-tis	.	.	.	.
16G\	.	.	.	.	.	.	.	.	.	.	.	.	.	.	.	.
16D\	.	.	.	.	.	.	.	.	.	.	.	.	.	.	.	.
16BB\JJ	.	.	.	.	.	.	.	.	.	.	.	.	.	.	.	.
=14	=14	=14	=14	=14	=14	=14	=14	=14	=14	=14	=14	=14	=14	=14	=14	=14
!LO:TX:a:i:t=P:problem:mixed beam	!	!	!	!	!	!	!	!	!	!	!	!	!	!	!	!
16GG/LL	.	.	(16dd\LL	.	(16bb\LL	.	.	.	.	.	16b\LL	i-	.	.	.	.
16G\	.	.	16cc\)	.	16aa\	.	.	.	.	.	16a\JJ	.	.	.	.	.
16G\	.	.	(16dd\	.	16bb\	.	.	.	.	.	16b\LL	-ta	.	.	.	.
16G\JJ	.	.	16cc\JJ)	.	16aa\JJ)	.	.	.	.	.	16a\JJ	.	.	.	.	.
!	!	!	!	!	!	!	!	!	!	!	!LO:LB:g=original	!	!	!	!	!
16G\LL	.	.	8b/L	.	8gg\L	.	.	.	.	.	8g\	i-	.	.	.	.
16G\	.	.	.	.	.	.	.	.	.	.	.	.	.	.	.	.
16G\	.	.	8b/J	.	8gg\J	.	.	.	.	.	8g\	-ta	.	.	.	.
16G\JJ	.	.	.	.	.	.	.	.	.	.	.	.	.	.	.	.
*tremolo	*	*	*	*	*	*	*	*	*	*	*	*	*	*	*	*
16G\LL	.	.	8.ee\L	.	8.ccc\L	.	.	.	.	.	8.cc\	fi-	.	.	.	.
16G\	.	.	.	.	.	.	.	.	.	.	.	.	.	.	.	.
16G\	.	.	.	.	.	.	.	.	.	.	.	.	.	.	.	.
16G\	.	.	16dd\Jk	.	16bb\Jk	.	.	.	.	.	16b\	-li-	.	.	.	.
16G\	.	.	4cc\	.	4aa\	.	.	.	.	.	4a\	-i	.	.	.	.
16G\	.	.	.	.	.	.	.	.	.	.	.	.	.	.	.	.
16G\	.	.	.	.	.	.	.	.	.	.	.	.	.	.	.	.
16G\JJ	.	.	.	.	.	.	.	.	.	.	.	.	.	.	.	.
!	!	!	!	!	!LO:LB:g=original	!	!	!	!	!	!	!	!	!	!	!
=15	=15	=15	=15	=15	=15	=15	=15	=15	=15	=15	=15	=15	=15	=15	=15	=15
16D\LL	.	.	16cc\LL	.	16aa\LL	.	.	.	.	.	16a\LL	ex	.	.	.	.
16D\	.	.	16b\	.	16gg\	.	.	.	.	.	(16g\	.	.	.	.	.
16D\	.	.	16cc\	.	16aa\	.	.	.	.	.	16a\	.	.	.	.	.
16D\	.	.	16b\JJ	.	16gg\JJ	.	.	.	.	.	(16g\JJ)	.	.	.	.	.
16D\	.	.	8a\L	.	8ff#X\L	.	.	.	.	.	8f#X\)	.	.	.	.	.
16D\	.	.	.	.	.	.	.	.	.	.	.	.	.	.	.	.
16D\	.	.	16b\L	.	16gg\L	.	.	.	.	.	(16g\LL	cur-	.	.	.	.
16D\JJ	.	.	16cc\JJ	.	16aa\JJ	.	.	.	.	.	16a\JJ)	.	.	.	.	.
*Xtremolo	*	*	*	*	*	*	*	*	*	*	*	*	*	*	*	*
8G\L	.	.	8.dd\L	.	8.bb\L	.	.	.	.	.	8.b\L	-so-	.	.	.	.
8D\J	.	.	.	.	.	.	.	.	.	.	.	.	.	.	.	.
.	.	.	16cc\Jk	.	16aa\Jk	.	.	.	.	.	16a\Jk	.	.	.	.	.
16r	.	.	4b\	.	4gg\	.	.	.	.	.	4g\	-rum	.	.	.	.
16GG/LL	.	.	.	.	.	.	.	.	.	.	.	.	.	.	.	.
16BB/	.	.	.	.	.	.	.	.	.	.	.	.	.	.	.	.
16D/JJ	.	.	.	.	.	.	.	.	.	.	.	.	.	.	.	.
!LO:LB:g=original	!	!	!	!	!	!	!LO:LB:g=original	!	!	!	!	!	!	!	!LO:PB:g=original	!
=16	=16	=16	=16	=16	=16	=16	=16	=16	=16	=16	=16	=16	=16	=16	=16	=16
!LO:TX:a:i:t=Tutti	!	!	!LO:TX:a:i:t=Tutti	!	!	!LO:DY:t=forte	!	!	!	!	!	!	!	!	!	!
*	*	*	*tremolo	*	*	*	*	*	*	*	*	*	*	*	*	*
8G\L	.	.	16d/LL	.	(16gg\LL	f	4G\	Be-	4d\	be-	8dd\L	be-	8gg\L	be-	4g/	4dd\
.	.	.	16d/	.	16dd\	.	.	.	.	.	.	.	.	.	.	.
8D\	.	.	16d/	.	16b\	.	.	.	.	.	8b\J	.	8dd\J	.	.	.
.	.	.	16d/	.	16dd\JJ)	.	.	.	.	.	.	.	.	.	.	.
8A\	3	.	16d/	.	(16cc\LL	.	8A\	-a-	16d\	-a-	16a\	-a-	16cc\	-a-	4r	4r
.	.	.	16d/	.	16dd\	.	.	.	16d\	-tus	16a\	-tus	16cc\	-tus	.	.
8D\J	.	.	16d/	.	16cc\	.	8D/	-tus	8d\	vir	8a\	vir	8cc\	vir	.	.
.	.	.	16d/JJ	.	16dd\JJ)	.	.	.	.	.	.	.	.	.	.	.
!	!	!	!	!	!	!	!	!	!	!	!LO:LB:g=original	!	!	!	!	!
8G\L	.	.	16d/LL	.	(16b\LL	.	8G\	vir	8d\	qui	8g\	qui	8b\	qui	4g/	4dd\
.	.	.	16d/	.	16dd\	.	.	.	.	.	.	.	.	.	.	.
8D\	.	.	16d/	.	16b\	.	16G\	qui	8d\	im-	8b\	im-	8dd\	im-	.	.
.	.	.	16d/	.	16dd\JJ)	.	16G\	im-	.	.	.	.	.	.	.	.
8A\	4 3	.	16d/	.	(16cc\LL	.	8A\	-ple-	8d\	-ple-	8a\	-ple-	8cc\	-ple-	4r	4r
.	.	.	16d/	.	16dd\	.	.	.	.	.	.	.	.	.	.	.
8D\J	.	.	16d/	.	16cc\	.	8D/	-vit	8d\	-vit	8a\	-vit	8cc\	-vit	.	.
.	.	.	16d/JJ	.	16dd\JJ)	.	.	.	.	.	.	.	.	.	.	.
*	*	*	*Xtremolo	*	*	*	*	*	*	*	*	*	*	*	*	*
=17	=17	=17	=17	=17	=17	=17	=17	=17	=17	=17	=17	=17	=17	=17	=17	=17
8G\L	.	.	16d/LL 16dd/	.	(16b\LL	???	8G\	de-	8d\	de-	16g\LL	de-	16b\LL	de-	4g/	4dd\
.	.	.	16d/ 16dd/	.	16dd\	.	.	.	.	.	16b\JJ	.	16dd\JJ	.	.	.
8D\J	.	.	16d/ 16dd/	.	16gg\	.	8G\	-si-	8d\	-si-	16dd\LL	-si-	16gg\LL	-si-	.	.
.	.	.	16d/JJ 16dd/	.	16dd\JJ)	.	.	.	.	.	16b\JJ	.	16dd\JJ	.	.	.
8A\L	.	.	16d/KL 16dd/	.	16cc\LL	.	16A\	-de-	16d\	-de-	16a\	-de-	16cc\	-de-	4r	4r
.	.	.	8d/ 8dd/	.	16dd\	.	16A\	-ri-	16d\	-ri-	16a\	-ri-	16cc\	-ri-	.	.
8D\J	.	.	.	.	16cc\	.	8D/	-um	8d\	-um	8a\	-um	8cc\	-um	.	.
.	.	.	16d/Jk 16dd/	.	16dd\JJ	.	.	.	.	.	.	.	.	.	.	.
!	!	!	!LO:LB:g=original	!	!	!	!	!	!	!	!	!	!LO:LB:g=original	!	!	!
8G\L	.	.	8d/L 8b/	.	(16b\LL	.	4G\	su-	4d\	su-	8g\	su-	8b\	su-	2r	2r
.	.	.	.	.	16gg\	.	.	.	.	.	.	.	.	.	.	.
8G\	.	.	16a/L	.	16ff#X\	.	.	.	.	.	16f#X\LL	-um	16a\LL	-um	.	.
.	.	.	16cc/JJ	.	16aa\JJ)	.	.	.	.	.	16a\JJ	.	16cc\JJ	.	.	.
8B\	.	.	8g/L 8dd/	.	(16gg\LL	.	8A\	-um	8d\	-um	16g\LL	ex	(8b\L	ex	.	.
.	.	.	.	.	16aa\	.	.	.	.	.	16a\	.	.	.	.	.
8B\J	.	.	8g/J 8dd/	.	16gg\	.	8B\	ex	8G/	ex	16g\	.	8dd\J)	.	.	.
.	.	.	.	.	16ffn\JJ)	.	.	.	.	.	16fn\JJ	.	.	.	.	.
!	!	!	!	!	!LO:LB:g=original	!	!LO:LB:g=original	!	!LO:LB:g=original	!	!	!	!	!	!	!LO:PB:g=original
=18	=18	=18	=18	=18	=18	=18	=18	=18	=18	=18	=18	=18	=18	=18	=18	=18
!!pagebreak:original
8c\L	.	.	8G/L 8e/	.	(16ee\LL	.	8c\	ip-	8c\	ip-	8g\	ip-	8ee\	ip-	8cc\L	8ee\L
.	.	.	.	.	16cc\	.	.	.	.	.	.	.	.	.	.	.
8c\	.	.	8G/ 8e/	.	16ee\	.	8c\	-sis	8c\	-sis	8g\	-sis	8ee\	-sis	16cc\L	16ee\L
.	.	.	.	.	16ff\JJ)	.	.	.	.	.	.	.	.	.	16dd\JJ	16ff\JJ
8B\	.	.	8G/ 8d/	.	(16gg\LL	.	8B\	non	8B\	non	8g\	non	8dd\	non	8ee\L	8gg\L
.	.	.	.	.	16aa\	.	.	.	.	.	.	.	.	.	.	.
8B\J	.	.	8G/J 8d/	.	16gg\	.	16B\	con-	16d\	con-	16g\	con-	16dd\	con-	8dd\J	8ff\J
.	.	.	.	.	16ff\JJ)	.	16B\	-fun-	16f\	-fun-	16g\	-fun-	16dd\	-fun-	.	.
!	!	!	!	!	!	!	!	!	!	!	!LO:LB:g=original	!	!	!	!	!
8c\L	.	.	(16e/LL	.	(16ee\LL	.	8c\	-de-	8e\	-de-	8g\	-de-	16ee\LL	-de-	8cc\L	8ee\L
.	.	.	16g/	.	16cc\	.	.	.	.	.	.	.	16cc\JJ	.	.	.
8c\	.	.	16e/)	.	16ee\	.	8C/	-tur	8c\	-tur	8g\	-tur	16ee\LL	-tur	16cc\L	16ee\L
.	.	.	16g/JJ	.	16ff\JJ)	.	.	.	.	.	.	.	16ff\JJ	.	16dd\JJ	16ff\JJ
8B\	.	.	(16d/LL	.	(16gg\LL	.	8B\	cum	8d\	cum	8g\	cum	16gg\LL	cum	8ee\L	8gg\L
.	.	.	16g/	.	16aa\	.	.	.	.	.	.	.	16aa\JJ	.	.	.
8B\J	.	.	16d/)	.	16gg\	.	8B\	lo-	8f\	lo-	8g\	lo-	16gg\LL	lo-	8dd\J	8ff\J
.	.	.	16g/JJ	.	16ff\JJ)	.	.	.	.	.	.	.	16ff\JJ	.	.	.
=19	=19	=19	=19	=19	=19	=19	=19	=19	=19	=19	=19	=19	=19	=19	=19	=19
8C\L	.	.	8ee\L	.	16ee\LL	.	8c\	-que	8e\	-que-	8g\	-que-	8ee\	-que-	4cc\	4ee\
.	.	.	.	.	16ccc\	.	.	.	.	.	.	.	.	.	.	.
8D\	6	.	8ff\	.	16bb\	.	8d\	tur-	8c\	-tur	8g\	-tur	(16ee\LL	-tur	.	.
.	.	.	.	.	16ddd\JJ	.	.	.	.	.	.	.	16dd\JJ)	.	.	.
!	!	!	!	!	!	!	!	!	!	!	!	!	!LO:LB:g=original	!	!	!
8E\	6	.	8gg\	.	16ccc\LL	.	16e\	-i-	16c\	i-	16cc\	i-	16ee\	i-	4r	4r
.	.	.	.	.	16gg\	.	16E\	-ni-	16c\	-ni-	16g\	-ni-	16ee\	-ni-	.	.
8E\J	6 -5	.	8cc\J	.	16aa\	.	16E\	-mi-	16c\	-mi-	16a\	-mi-	16ff\	-mi-	.	.
.	.	.	.	.	16bb-X\JJ	.	16E\	-cis	16c\	-cis	16b-X\	-cis	16gg\	-cis	.	.
8F\L	.	.	8cc\L	.	(16bb-\LL	.	8F\	su-	4c\	su-	16b-\LL	su-	16gg\LL	su-	2r	2r
.	.	.	.	.	16aa\	.	.	.	.	.	16a\JJ	.	16ff\JJ	.	.	.
8F\	.	.	8cc\	.	16gg\	.	16F\	-is	.	.	16g\	-is	16ee\	-is	.	.
.	.	.	.	.	16ff\JJ)	.	16F\	in	.	.	16f\	in	16ff\	in	.	.
!	!	!	!	!	!	!	!	!	!LO:LB:g=original	!	!	!	!	!	!	!
8F#X\	7	.	8a\	.	(16ee\LL	.	8F#X\	por-	8A\	-in	8b-\	por-	16ee\LL	por-	.	.
.	.	.	.	.	16dd\	.	.	.	.	.	.	.	16dd\JJ	.	.	.
8F#\J	5	.	8a\J	.	16dd\	.	16F#\	-ta	8A\	in	8a\	-ta	16dd\	-ta	.	.
.	.	.	.	.	16cc\JJ)	.	16F#\	in	.	.	.	.	16cc\	in	.	.
!	!	!	!	!	!	!	!LO:LB:g=original	!	!	!	!	!	!	!	!	!
=20	=20	=20	=20	=20	=20	=20	=20	=20	=20	=20	=20	=20	=20	=20	=20	=20
!	!	!	!	!	!	!	!	!	!	!	!	!	!	!	!LO:TX:a:i:t=5	!LO:TX:a:i:t=5
16G\LL	.	.	4d/ 4a/	.	(4cc\	.	(16G\LL	por-	4d\	pa-	4a\	por-	4cc\	por-	00r	00r
16F#X\	.	.	.	.	.	.	16F#X\)	.	.	.	.	.	.	.	.	.
16G\	.	.	.	.	.	.	(16G\	.	.	.	.	.	.	.	.	.
16F#\JJ	.	.	.	.	.	.	16F#\JJ)	.	.	.	.	.	.	.	.	.
16G\LL	.	.	16d/LL	.	8b\)	.	4G\	-ta	8d\	-ta	8g\	-ta	8b\	-ta	.	.
16Fn\	.	.	16a/	.	.	.	.	.	.	.	.	.	.	.	.	.
16E\	.	.	16g/	.	8r	.	.	.	8r	.	8r	.	8r	.	.	.
16D\JJ	.	.	16f/JJ	.	.	.	.	.	.	.	.	.	.	.	.	.
!LO:LB:g=original	!	!	!	!	!	!	!	!	!	!	!LO:LB:g=original	!	!	!	!	!
!	!	!LO:DY:b:t=piano	!	!	!	!LO:DY:t=piano	!	!	!	!	!LO:TX:a:i:t=Solo	!	!LO:TX:a:i:t=Solo	!	!	!
8C/	.	p	16e/LL	p	16cc\LL	p	2r	.	2r	.	(16e\LL	Glo-	(16cc\LL	Glo-	.	.
.	.	.	(16d/	.	16b\	.	.	.	.	.	16d\	.	16b\	.	.	.
8r	.	.	16e/	.	(16cc\	.	.	.	.	.	16e\	.	16cc\	.	.	.
.	.	.	16f/JJ)	.	16dd\JJ	.	.	.	.	.	16f\JJ)	.	16dd\JJ)	.	.	.
8C/	.	.	(16g/LL	.	16ee\LL	.	.	.	.	.	16g\LL	-ri-	16ee\LL	-ri-	.	.
.	.	.	16e/	.	16cc\	.	.	.	.	.	16e\JJ	.	16cc\JJ	.	.	.
8r	.	.	16f/	.	16dd\	.	.	.	.	.	16f\LL	-a	(16dd\LL	-a	.	.
.	.	.	16g/JJ)	.	16ee\JJ)	.	.	.	.	.	16g\JJ	.	16ee\JJ)	.	.	.
!	!	!	!LO:LB:g=original	!	!LO:LB:g=original	!	!	!	!	!	!	!	!LO:LB:g=original	!	!	!
=21	=21	=21	=21	=21	=21	=21	=21	=21	=21	=21	=21	=21	=21	=21	=21	=21
!LO:TX:a:i:t=P:problem:mixed beam	!	!	!	!	!	!	!	!	!LO:TX:a:i:t=2	!	!	!	!	!	!	!
8C/L	.	.	8a/	.	8ff\	.	0r	.	0r	.	8a\	Pa-	8ff\	Pa-	.	.
16c\L	.	.	4a/	.	4ff\	.	.	.	.	.	4a\	-tri	4ff\	-tri	.	.
16B\JJ	.	.	.	.	.	.	.	.	.	.	.	.	.	.	.	.
!LO:TX:a:i:t=P:problem:mixed beam	!	!	!	!	!	!	!	!	!	!	!	!	!	!	!	!
8c\L	.	.	.	.	.	.	.	.	.	.	.	.	.	.	.	.
8C/J	3 5	.	16g/LL	.	(16ee\LL	.	.	.	.	.	16g\LL	et-	16ee\LL	et-	.	.
.	.	.	16a/JJ	.	16ff\JJ)	.	.	.	.	.	16a\JJ	.	16ff\JJ	.	.	.
!LO:TX:a:i:t=P:problem:mixed beam	!	!	!	!	!	!	!	!	!	!	!	!	!	!	!	!
.	.	.	8qqg/	.	16qqee/	.	.	.	.	.	.	.	8qee/	.	.	.
8G\L	.	.	8f/L	.	8dd\L	.	.	.	.	.	16f\	-fi-	16dd\	-fi-	.	.
.	.	.	.	.	.	.	.	.	.	.	16f\	-li-	16dd\	-li-	.	.
8C/J	.	.	8e/J	.	8cc\J	.	.	.	.	.	8e\	-o	8cc\	-o	.	.
!	!	!	!LO:TX:a:i:t=P:problem:mixed beam	!	!	!	!	!	!	!	!	!	!	!	!	!
16C\LL	.	.	16e/LL	.	4r	.	.	.	.	.	4r	.	4r	.	.	.
16c\	.	.	16ee\	.	.	.	.	.	.	.	.	.	.	.	.	.
16G\	.	.	16cc\	.	.	.	.	.	.	.	.	.	.	.	.	.
16E\JJ	.	.	16g\JJ	.	.	.	.	.	.	.	.	.	.	.	.	.
=22	=22	=22	=22	=22	=22	=22	=22	=22	=22	=22	=22	=22	=22	=22	=22	=22
8C/	.	.	(16cc\LL	.	(16ee\LL	.	.	.	.	.	(16e\LL	Glo-	16cc\LL	et	.	.
.	.	.	16b\	.	16dd\	.	.	.	.	.	16d\	.	16b\	.	.	.
8r	.	.	16cc\)	.	16ee\	.	.	.	.	.	16e\	.	16cc\	.	.	.
.	.	.	16dd\JJ	.	16ff\JJ	.	.	.	.	.	16f\JJ)	.	16dd\JJ	.	.	.
8c\	.	.	(16ee\LL	.	16gg\LL)	.	.	.	.	.	16g\LL	-ri-	16ee\LL	.	.	.
.	.	.	16cc\	.	16ee\	.	.	.	.	.	16e\JJ	.	16cc\JJ	.	.	.
8r	.	.	16dd\)	.	16ff\	.	.	.	.	.	16f\LL	-a	16dd\LL	Spi-	.	.
.	.	.	16ee\JJ	.	16gg\JJ	.	.	.	.	.	16g\JJ	.	16ee\JJ	.	.	.
8c\L	.	.	8ff\	.	8aa\	.	.	.	.	.	8a\	Pa-	8ff\	-ri-	.	.
16c\L	.	.	4ff\	.	4aa\	.	.	.	.	.	4a\	-tri	4ff\	-tu-	.	.
16B\JJ	.	.	.	.	.	.	.	.	.	.	.	.	.	.	.	.
!LO:TX:a:i:t=P:problem:mixed beam	!	!	!	!	!	!	!	!	!	!	!	!	!	!	!	!
8c\L	.	.	.	.	.	.	.	.	.	.	.	.	.	.	.	.
8C/J	.	.	16ee\LL	.	16gg\LL	.	.	.	.	.	16g\LL	et	16ee\LL	-i	.	.
.	.	.	16ff\JJ	.	16aa\JJ	.	.	.	.	.	16a\JJ	.	16ff\JJ	.	.	.
!	!	!	!	!	!	!	!	!	!	!	!LO:LB:g=original	!	!	!	!	!
=23	=23	=23	=23	=23	=23	=23	=23	=23	=23	=23	=23	=23	=23	=23	=23	=23
!LO:TX:a:i:t=P:problem:mixed beam	!	!	!	!	!	!	!	!	!	!	!	!	!	!	!	!
.	.	.	16qqee/	.	16qqgg/	.	.	.	.	.	.	.	8qee/	.	.	.
8G\L	.	.	8dd\L	.	8ff\L	.	2r	.	2r	.	16f\	fi-	8dd\	San-	.	.
.	.	.	.	.	.	.	.	.	.	.	16f\	-li-	.	.	.	.
8C/J	.	.	8cc\J	.	8ee\J	.	.	.	.	.	8e\	-o	8cc\	-cto	.	.
!LO:TX:a:i:t=P:problem:mixed beam	!	!	!LO:TX:a:i:t=P:problem:mixed beam	!	!	!	!	!	!	!	!	!	!	!	!	!
16C/LL	.	.	16e/LL	.	4r	.	.	.	.	.	4r	.	4r	.	.	.
16c\	.	.	16ee\	.	.	.	.	.	.	.	.	.	.	.	.	.
16G\	.	.	16cc\	.	.	.	.	.	.	.	.	.	.	.	.	.
16E\JJ	.	.	16g\JJ	.	.	.	.	.	.	.	.	.	.	.	.	.
!	!	!	!	!	!	!	!	!	!	!	!	!	!LO:LB:g=original	!	!	!
8C/L	.	.	(16cc\LL	.	16ee\LL	.	8c\	et	8c\	et	16e\LL	et	16cc\LL	et	.	.
.	.	.	16dd\	.	16ff\	.	.	.	.	.	16f\JJ	.	16dd\JJ	.	.	.
8C/J	.	.	16ee\	.	16gg\	.	8c\	spi-	8c\	Spi-	16g\LL	spi-	16ee\LL	Spi-	.	.
.	.	.	16ff\JJ)	.	16aa\JJ	.	.	.	.	.	16a\JJ	.	16ff\JJ	.	.	.
!	!	!	!LO:LB:g=original	!	!	!	!	!	!	!	!	!	!	!	!	!
16c\LL	.	.	4ee\	.	4gg\	.	16c\	-ri-	16c\	-ri-	16g\	-ri-	16ee\	-ri-	.	.
16G\	.	.	.	.	.	.	16c\	-tu-	16c\	-tu-	16g\	-tu-	16ee\	-tu-	.	.
!	!	!	!	!	!	!	!	!	!LO:N:vis=4	!	!	!	!	!	!	!
16E\	.	.	.	.	.	.	8c\	-i-	8c\	-i-	8g\	-i	8ee\	-i	.	.
16C\JJ	.	.	.	.	.	.	.	.	.	.	.	.	.	.	.	.
!LO:LB:g=original	!	!	!	!	!	!	!	!	!	!	!	!	!	!	!	!
=24	=24	=24	=24	=24	=24	=24	=24	=24	=24	=24	=24	=24	=24	=24	=24	=24
8C\L	.	.	(16aa\LL	.	(16ccc\LL	.	4c\	-San-	4c\	-San-	16cc\LL	San-	8ee\L	San-	1r	1r
.	.	.	16gg\	.	16bb\	.	.	.	.	.	16b\	.	.	.	.	.
8C\J	.	.	16ff\)	.	16aa\	.	.	.	.	.	16a\	.	16ff\L	.	.	.
.	.	.	16ee\JJ	.	16gg\JJ)	.	.	.	.	.	16g\JJ	.	16ee\JJ	.	.	.
16c\LL	.	.	4ee\	.	4gg\	.	4c\	-cto	4c\	-cto	4g\	-cto	4ee\	-cto	.	.
16G\	.	.	.	.	.	.	.	.	.	.	.	.	.	.	.	.
16E\	.	.	.	.	.	.	.	.	.	.	.	.	.	.	.	.
16C\JJ	.	.	.	.	.	.	.	.	.	.	.	.	.	.	.	.
!	!	!	!	!	!	!	!	!	!LO:LB:g=original	!	!	!	!	!	!	!
8G\L	.	.	(16b\LL	.	(16dd\LL	.	8G\	et	8B\	et	16d\LL	et	16b\LL	et	.	.
.	.	.	16cc\	.	16ee\	.	.	.	.	.	16e\JJ	.	16cc\JJ	.	.	.
8G\J	.	.	16dd\	.	16ff\	.	8G\	spi-	8B\	Spi-	16f\LL	spi-	16dd\LL	Spi-	.	.
.	.	.	16ee\JJ)	.	16gg\JJ	.	.	.	.	.	16g\JJ	.	16ee\JJ	.	.	.
16G\LL	.	.	4dd\	.	4ff\)	.	16G\	-ri-	16B\	-ri-	16f\	-ri-	16dd\	-ri-	.	.
16D\JJ	.	.	.	.	.	.	16G\	-tu-	16B\	-tu-	16f\	-tu-	16dd\	-tu-	.	.
16BB/LL	.	.	.	.	.	.	8G\	-i	8B\	-i	8f\	-i	8dd\	-i	.	.
16GG/JJ	.	.	.	.	.	.	.	.	.	.	.	.	.	.	.	.
!	!	!	!	!	!LO:LB:g=original	!	!LO:LB:g=original	!	!	!	!	!	!	!	!	!
=25	=25	=25	=25	=25	=25	=25	=25	=25	=25	=25	=25	=25	=25	=25	=25	=25
8G\L	.	.	8d/L 8b/	.	(16bb\LL	.	4G\	San-	4B\	San-	16b\LL	San-	4dd\	San-	2r	2r
.	.	.	.	.	16aa\	.	.	.	.	.	16a\	.	.	.	.	.
8G\J	.	.	8d/J 8b/	.	16gg\	.	.	.	.	.	16g\	.	.	.	.	.
.	.	.	.	.	16ff\JJ)	.	.	.	.	.	16f\JJ	.	.	.	.	.
16G\LL	.	.	(16dd\LL	.	4ff\	.	4G\	-cto	4B\	-cto	4f\	-cto	4dd\	-cto	.	.
16D\JJ	.	.	16b\)	.	.	.	.	.	.	.	.	.	.	.	.	.
16BB/LL	.	.	(16dd\	.	.	.	.	.	.	.	.	.	.	.	.	.
16GG/JJ	.	.	16b\JJ)	.	.	.	.	.	.	.	.	.	.	.	.	.
*tremolo	*	*	*	*	*	*	*	*	*	*	*	*	*	*	*	*
!	!	!	!	!	!	!	!	!	!	!	!LO:LB:g=original	!	!	!	!	!
!LO:TX:a:i:t=Tutti	!	!	!	!	!	!LO:DY:t=forte	!	!	!	!	!	!	!	!	!	!
8C/L	.	.	16G/LL 16e/	.	8ee\L	f	8c\	Si-	8c\	si-	8g\	Si-	8ee\	si-	8cc\L	4.ee\
!	!	!	!	!LO:DY:t=for	!	!	!	!	!	!	!	!	!	!	!	!
.	.	.	16g/	f	.	.	.	.	.	.	.	.	.	.	.	.
8C/	.	.	16G/ 16e/	.	8cc\J	.	8C/	-cut	8G/	-cut	8g\	-cut	8cc\	-cut	8g\	.
.	.	.	16g/JJ	.	.	.	.	.	.	.	.	.	.	.	.	.
!	!	!	!LO:TX:a:i:t=P:problem:mixed beam	!	!	!	!	!	!	!	!	!	!	!	!	!
!	!	!	!	!	!	!	!	!	!	!	!	!	!LO:LB:g=original	!	!	!
8C/	.	.	(16cc\LL	.	16ee\LL	.	8C/	e-	16c\LL	si-	8g\	e-	16ee\LL	e-	8cc\	.
.	.	.	16g/JJ)	.	16cc\	.	.	.	16G\JJ	.	.	.	16cc\JJ	.	.	.
8C/J	.	.	(16e/LL	.	16ee\	.	8C/	-rat	16c\LL	-cut	8g\	-rat	16ee\LL	-rat	8ee\J	8gg\
.	.	.	16g/JJ)	.	16gg\JJ	.	.	.	16e\JJ	.	.	.	16gg\JJ	.	.	.
*Xtremolo	*	*	*	*	*	*	*	*	*	*	*	*	*	*	*	*
=26	=26	=26	=26	=26	=26	=26	=26	=26	=26	=26	=26	=26	=26	=26	=26	=26
!!pagebreak:original
!	!	!	!	!LO:DY:f=for	!	!	!	!	!	!	!	!	!	!	!LO:TX:a:i:t=P:problem:mixed beam	!
8G\L	.	.	16d/LL	f	8ff\L	.	8G\	si-	8d\L	e-	8g\	in	(8ff\L	e-	8dd\L	8ff\L
.	.	.	16b/	.	.	.	.	.	.	.	.	.	.	.	.	.
8G\J	.	.	16g/	.	8dd\J	.	8G\	-cut	8B\J	.	8g\	prin-	8dd\J)	.	8g/J	8dd\J
.	.	.	16b/JJ	.	.	.	.	.	.	.	.	.	.	.	.	.
!	!	!	!LO:LB:g=original	!	!	!	!	!	!LO:LB:g=original	!	!	!	!	!	!	!
16G\LL	.	.	(16dd\LL	.	4dd\	.	8G\	e-	4B\	-rat	16g\	-ci-	4dd\	-rat	4g/	4dd\
16G\	.	.	16b\	.	.	.	.	.	.	.	16g\	-pi-	.	.	.	.
16A\	.	.	16cc\	.	.	.	16A\LL	-rat	.	.	8g\	-o	.	.	.	.
16B\JJ	.	.	16dd\JJ)	.	.	.	16B\JJ	.	.	.	.	.	.	.	.	.
*tremolo	*	*	*	*	*	*	*	*	*	*	*	*	*	*	*	*
8c\L	.	.	(16e/LL	.	16ee\LL	.	8c\	in	8c\	e-	4g\	et	8ee\	e-	4cc\	4ee\
.	.	.	16g/)	.	16cc\	.	.	.	.	.	.	.	.	.	.	.
8c\	.	.	(16e/	.	16b\	.	8c\	prin-	8G/	-rat	.	.	8cc\	-rat	.	.
.	.	.	16g/JJ)	.	16cc\JJ	.	.	.	.	.	.	.	.	.	.	.
!	!	!	!LO:TX:a:i:t=P:problem:mixed beam	!	!	!	!	!	!	!	!	!	!	!	!	!
8c\	.	.	(16cc\LL	.	16ee\LL	.	16c\	-ci-	8c\	in	8g\	nunc	8ee\	in	8r	8r
.	.	.	16g/JJ)	.	16gg\	.	16c\	-pi-	.	.	.	.	.	.	.	.
8c\J	.	.	16e/LL	.	16ccc\	.	8c\	-o	8G/	prin-	8g\	et	8cc\	prin-	8ee\	8gg\
.	.	.	16g/JJ	.	16aa\JJ	.	.	.	.	.	.	.	.	.	.	.
*Xtremolo	*	*	*	*	*	*	*	*	*	*	*	*	*	*	*	*
!	!	!	!	!	!	!	!	!	!	!	!	!	!	!	!LO:LB:g=original	!
=27	=27	=27	=27	=27	=27	=27	=27	=27	=27	=27	=27	=27	=27	=27	=27	=27
!	!	!	!	!	!	!	!	!	!	!	!	!	!	!	!LO:TX:a:i:t=P:problem:mixed beam	!
.	.	.	.	.	16qqgg/	.	.	.	.	.	.	.	.	.	.	.
8d\L	.	.	16d/LL	f	8ff\L	.	8d\	in	8d\	-ci-	4g\	sem-	8ff\	-ci-	8dd\L	8ff\L
.	.	.	16b/	.	.	.	.	.	.	.	.	.	.	.	.	.
8G\J	.	.	16g/	.	8dd\J	.	8G\	prin-	8B\	-pi-	.	.	8dd\	-pi-	8g/J	8dd\J
.	.	.	16b/JJ	.	.	.	.	.	.	.	.	.	.	.	.	.
!	!	!	!	!	!	!	!LO:LB:g=original	!	!	!	!	!	!	!	!	!
16G\LL	.	.	(16dd\LL	.	4dd\	.	8G\	-ci-	4B\	-o	4g\	-per	4dd\	-o	4g/	4dd\
16G\	.	.	16b\	.	.	.	.	.	.	.	.	.	.	.	.	.
16A\	.	.	16cc\	.	.	.	16A\LL	-pi-	.	.	.	.	.	.	.	.
16B\JJ	.	.	16dd\JJ)	.	.	.	16B\JJ	.	.	.	.	.	.	.	.	.
!	!	!	!	!	!	!	!	!	!	!	!	!	!	!	!LO:TX:a:i:t=P:problem:mixed beam	!
8c\L	.	.	16G/KL 16g/	.	16cc\LL	.	8c\	-o	4e\	et	4g\	et	8cc\	et	8cc\L	4ee\
.	.	.	8G/ 8g/	.	16gg\	.	.	.	.	.	.	.	.	.	.	.
8G\	.	.	.	.	16ee\	.	8c\	et	.	.	.	.	16cc\	nunc	8g/J	.
.	.	.	8G/ 8g/	.	16gg\JJ	.	.	.	.	.	.	.	16ee\	et	.	.
!	!	!	!	!	!	!	!	!	!	!	!	!	!	!	!LO:TX:a:i:t=P:problem:mixed beam	!
8d\	.	.	.	.	(16ff\LL	.	8d\	nunc	8f\L	nunc	4g\	nunc	8ff\	sem-	8dd\L	4ff\
.	.	.	8G/ 8g/	.	16gg\	.	.	.	.	.	.	.	.	.	.	.
8G\J	.	.	.	.	16ff\	.	8G\	et	8d\J	.	.	.	8ff\	-per	8g/J	.
.	.	.	16G/Jk 16g/	.	16gg\JJ)	.	.	.	.	.	.	.	.	.	.	.
!LO:LB:g=original	!	!	!	!	!	!	!	!	!	!	!	!	!LO:PB:g=original	!	!	!
=28	=28	=28	=28	=28	=28	=28	=28	=28	=28	=28	=28	=28	=28	=28	=28	=28
!	!	!	!LO:SIC:o=:v: dolny dźwięk g zapisany za pomocą przenośnika oktawowego	!	!	!	!	!	!	!	!	!	!LO:SIC:o=:v: linia przerywana nad pięciolinią	!	!LO:TX:a:i:t=P:problem:mixed beam	!
8c\L	.	.	16G/KL 16g/	.	(16ee\LL	.	8c\	sem-	4e\	et	4g\	et	8ee\	et	8cc\L	4ee\
.	.	.	8G/ 8g/	.	16gg\	.	.	.	.	.	.	.	.	.	.	.
8G\	.	.	.	.	16ccc\	.	16c\	-per	.	.	.	.	16ee\	nunc	8g/J	.
.	.	.	8G/ 8g/	.	16gg\JJ)	.	16c\	et	.	.	.	.	16ee\	et	.	.
!	!	!	!	!	!	!	!	!	!	!	!	!	!	!	!LO:TX:a:i:t=P:problem:mixed beam	!
8d\	.	.	.	.	16ff\LL	.	8d\	sem-	8f\	sem-	8g\	sem-	8ff\	sem-	8dd\L	4ff\
.	.	.	8G/ 8g/	.	(16gg\	.	.	.	.	.	.	.	.	.	.	.
8G\J	.	.	.	.	16ff\	.	8G\	-per	8d\	-per	8g\	-per	8ff\	-per	8g/J	.
.	.	.	16G/Jk 16g/	.	16gg\JJ)	.	.	.	.	.	.	.	.	.	.	.
!	!	!	!	!	!	!	!	!	!LO:TX:a:i:t=V(otti)&colon; Su(bito)	!	!	!	!	!	!	!
!	!	!	!LO:LB:g=original	!	!LO:LB:g=original	!	!	!	!LO:PB:g=original	!	!LO:LB:g=original	!	!	!	!	!
8c\L	.	.	16g/KL 16cc/	.	(16ee\LL	.	8c\	et	8G/	et	16e\LL	et	8ee\	et	4cc\	4ee\
.	.	.	8g/ 8cc/	.	16ff\	.	.	.	.	.	16f\JJ	.	.	.	.	.
8E\	.	.	.	.	16gg\	.	8E\	in	8c\	in	16g\LL	in	8cc\	in	.	.
.	.	.	8g/ 8cc/	.	16aa\JJ)	.	.	.	.	.	16a\JJ	.	.	.	.	.
8E\	.	.	.	.	16bb-X\LL	.	16E\	sae-	16c\	sae-	16b-X\LL	sea-	16cc\	sae-	4r	4r
.	.	.	8g/ 8cc/	.	16aa\	.	16E\	-cu-	16c\	-cu-	16a\JJ	.	16cc\	-cu-	.	.
8E\J	.	.	.	.	16bb-\	.	8E\	-la	8c\	-la	16b-\	-cu-	8cc\	-la	.	.
.	.	.	16g/Jk 16cc/	.	16gg\JJ	.	.	.	.	.	16g\	-la	.	.	.	.
!	!	!	!	!	!	!	!	!	!	!	!	!	!	!	!	!LO:LB:g=original
=29	=29	=29	=29	=29	=29	=29	=29	=29	=29	=29	=29	=29	=29	=29	=29	=29
8F\L	.	.	8cc\	.	16gg#X\LL	.	8F\	sae-	8B\	sae-	16g#X\LL	Sae-	16cc\LL	sae-	2r	2r
.	.	.	.	.	16aa\JJ	.	.	.	.	.	16a\JJ	.	16ff\JJ	.	.	.
8D\J	.	.	4ff\	.	4aa\	.	8d\	-cu-	8B\	-cu-	8a\	-cu-	8ff\	-cu-	.	.
8BB/L	7	.	.	.	.	.	8B\	-lo-	8d\	-lo-	8a\	-lo-	8ff\	-lo-	.	.
.	8	.	.	.	.	.	.	.	.	.	.	.	.	.	.	.
!	!	!	!	!	!	!	!LO:LB:g=original	!	!	!	!	!	!	!	!	!
8GG/J	7	.	(16ee\LL	.	16ggn\LL	.	8G\	-rum	8B\	-rum	16gn\LL	-rum	16ee\LL	-rum	.	.
.	.	.	16dd\JJ)	.	16ff\JJ	.	.	.	.	.	16f\JJ	.	16dd\JJ	.	.	.
!LO:TX:a:i:t=P:problem:mixed beam	!	!	!	!	!	!	!	!	!	!	!	!	!	!	!	!
8C\L	.	.	8g/L	.	(16ff\LL	.	8c\	A-	8G/	a-	16f\LL	a-	8cc\	a-	8r	8r
.	.	.	.	.	16ee\	.	.	.	.	.	16e\JJ	.	.	.	.	.
8F\	.	.	16a/L	.	16ff\	.	8F\	-men	8A/	-men	16f\LL	-men	16ff\LL	-men	8g/L	8dd\L
.	.	.	16f/JJ	.	16dd\JJ)	.	.	.	.	.	16d\JJ	.	16dd\JJ	.	.	.
8G\	.	.	(8G/L 8e/	.	(8cc\L	.	4G\	a-	8e\L	A-	4g\	a-	8cc\L	a-	8cc/	8ee\
8GG/J	.	.	8d/J)	.	8bt\J)	.	.	.	8d\J	-men	.	.	8b\J	.	8g/J	8dd\J
=30	=30	=30	=30	=30	=30	=30	=30	=30	=30	=30	=30	=30	=30	=30	=30	=30
!	!	!	!	!	!	!	!	!	!	!	!	!	!	!	!LO:TX:a:i:t=P:problem:mixed beam	!
8C/L	.	.	16G/KL 16g/	.	(16cc\LL	.	4C/	-men,	8c\	et	4g\	-men	4cc\	-men	8cc\L	4ee\
!	!	!	!LO:SIC:o=:v:dolny dźwięk g zapisany za pomocą przenośnika oktawowego	!	!	!	!	!	!	!	!	!	!	!	!	!
.	.	.	8G/ 8g/	.	16gg\	.	.	.	.	.	.	.	.	.	.	.
8GG/	.	.	.	.	16ee\	.	.	.	16c\	nunc	.	.	.	.	8g/J	.
.	.	.	8G/ 8g/	.	16gg\JJ)	.	.	.	16c\	et	.	.	.	.	.	.
!	!	!	!	!	!	!	!	!	!	!	!	!	!	!	!LO:TX:a:i:t=P:problem:mixed beam	!
!	!	!	!	!	!	!	!	!	!LO:LB:g=original	!	!	!	!	!	!	!
8D/	4 3	.	.	.	(16ff\LL	.	4r	.	8d\	sem-	4r	.	4r	.	8dd\L	4ff\
.	.	.	8G/ 8g/	.	16gg\	.	.	.	.	.	.	.	.	.	.	.
8GG/J	.	.	.	.	16ff\	.	.	.	8d\	-per	.	.	.	.	8g/J	.
.	.	.	16G/Jk 16g/	.	16gg\JJ)	.	.	.	.	.	.	.	.	.	.	.
!	!	!	!LO:SIC:o=:v:dolny dźwięk g zapisany za pomocą przenośnika oktawowego	!	!	!	!	!	!	!	!	!	!	!	!LO:TX:a:i:t=P:problem:mixed beam	!
8c\L	.	.	16G/KL 16g/	.	(16ee\LL	.	8c\	et	8c\	et	8g\	et	2r	.	8cc\L	4ee\
.	.	.	8G/ 8g/	.	16gg\	.	.	.	.	.	.	.	.	.	.	.
8G\	.	.	.	.	16ccc\	.	16c\	nunc	16c\	nunc	16g\	nunc	.	.	8g/J	.
.	.	.	8G/ 8g/	.	16gg\JJ)	.	16c\	et	16c\	et	16g\	et	.	.	.	.
!	!	!	!	!	!	!	!	!	!	!	!	!	!	!	!LO:TX:a:i:t=P:problem:mixed beam	!
8d\	4 3	.	.	.	(16ff\LL	.	8d\	sem-	8d\	sem-	8g\	sem-	.	.	8dd\L	4ff\
.	.	.	8G/ 8g/	.	16gg\	.	.	.	.	.	.	.	.	.	.	.
8G\J	.	.	.	.	16ff\	.	8d\	-per	8d\	-per	8g\	-per	.	.	8g/J	.
.	.	.	16G/Jk 16g/	.	16gg\JJ)	.	.	.	.	.	.	.	.	.	.	.
!	!	!	!	!	!LO:LB:g=original	!	!	!	!	!	!LO:LB:g=original	!	!	!	!	!
!	!	!	!	!	!	!	!	!	!	!	!LO:TX:a:i:t=Votti subito.	!	!	!	!	!
=31	=31	=31	=31	=31	=31	=31	=31	=31	=31	=31	=31	=31	=31	=31	=31	=31
!	!	!	!	!	!	!	!	!	!	!	!	!	!LO:TX:a:i:t=1	!	!	!
8c\L	.	.	16g/KL 16cc/	.	16ee\LL	.	8c\	et	8c\	et	16e\LL	et	1r	.	4cc\	4ee\
.	.	.	8g/ 8cc/	.	(16ff\	.	.	.	.	.	16f\JJ	.	.	.	.	.
8E\	6	.	.	.	16gg\	.	8E\	in	8G/	in	16g\LL	in	.	.	.	.
.	.	.	8g/ 8cc/	.	16aa\JJ)	.	.	.	.	.	16a\JJ	.	.	.	.	.
8E\	-5	.	.	.	16bb-X\LL	.	16E\	sae-	16G/	sae-	(16b-X\LL	sae-	.	.	4r	4r
.	.	.	8g/ 8cc/	.	(16aa\	.	16E\	-cu-	16G/	-cu-	16a\JJ)	.	.	.	.	.
8E\J	.	.	.	.	16bb-\	.	8E\	-la	8G/	-la	16b-\	-cu-	.	.	.	.
.	.	.	16g/Jk 16cc/	.	16gg\JJ)	.	.	.	.	.	16g\	-la	.	.	.	.
!	!	!	!LO:LB:g=original	!	!	!	!	!	!	!	!	!	!	!	!	!
8F\L	.	.	8cc\	.	16gg#X\LL	.	8F\	sae-	8c\	sae-	16g#X\LL	sae-	.	.	2r	2r
.	.	.	.	.	16aa\JJ	.	.	.	.	.	16a\JJ	.	.	.	.	.
8D\J	.	.	4ff\	.	4aa\	.	8d\	-cu-	8B\	-cu-	8a\	-cu-	.	.	.	.
!	!	!	!	!	!	!	!	!	!LO:LB:g=original	!	!	!	!	!	!	!
8BB/L	7	.	.	.	.	.	8B\	-lo-	8d\	-lo-	8a\	-lo-	.	.	.	.
.	8	.	.	.	.	.	.	.	.	.	.	.	.	.	.	.
8GG/J	7	.	16ee\LL	.	16ggn\LL	.	8G\	-rum	8B\	-rum	16gn\LL	-rum	.	.	.	.
.	.	.	16dd\JJ	.	16ff\JJ	.	.	.	.	.	16f\JJ	.	.	.	.	.
!	!	!	!	!	!	!	!LO:LB:g=original	!	!	!	!	!	!	!	!LO:LB:g=original	!
=32	=32	=32	=32	=32	=32	=32	=32	=32	=32	=32	=32	=32	=32	=32	=32	=32
*	*	*	*	*	*	*	*	*	*	*	*	*	*2\right	*	*	*
!LO:TX:a:i:t=P:problem:mixed beam	!	!	!	!	!	!	!	!	!	!	!	!	!	!	!	!
8C\L	.	.	8g/L	.	16ff\LL	.	8c\	a-	8G/	A-	16f\LL	a-	2r	.	8r	8r
.	.	.	.	.	(16ee\	.	.	.	.	.	16e\JJ	.	.	.	.	.
8F\	.	.	16a/L	.	16ff\	.	8F\	-men	8A/	-men	8a\	-men	.	.	8g/L	16ff\LL
.	.	.	16f/JJ	.	16dd\JJ)	.	.	.	.	.	.	.	.	.	.	16dd\JJ
8G\	.	.	16G/LL 16e/	.	8cc\L	.	4G\	a-	8e\L	A-	4g\	a-	.	.	8cc/	8ee\L
.	.	.	16g/	.	.	.	.	.	.	.	.	.	.	.	.	.
8GG/J	.	.	16G/ 16d/	.	8b\J	.	.	.	8d\J	-men	.	.	.	.	8g/J	8dd\J
.	.	.	16g/JJ	.	.	.	.	.	.	.	.	.	.	.	.	.
!LO:LB:g=original	!	!	!	!	!	!	!	!	!	!	!	!	!	!	!	!
!	!	!	!LO:TX:a:i:t=P:problem:mixed beam	!	!	!	!	!	!	!	!	!	!	!	!	!
8C\L	.	.	8e/L	.	8cc\L	.	8C/	-men	4e\	A-	4g\	-men	2ee\	A-	8e/	8cc\
8c\	.	.	8cc\ 8ee\	.	8ccc\	.	8c\L	a-	.	.	.	.	.	.	4ee\	4ccc\
8G\	.	.	8cc\ 8ee\	.	8ccc\	.	8G\	.	4c\	.	4g\	a-	.	.	.	.
8E\J	.	.	8cc\J 8ee\	.	8ccc\J	.	8C\J	.	.	.	.	.	.	.	8ee\	8ccc\
=33	=33	=33	=33	=33	=33	=33	=33	=33	=33	=33	=33	=33	=33	=33	=33	=33
*	*	*	*2\right	*	*2\right	*	*	*	*2\right	*	*2\right	*	*	*	*2\right	*2\right
2C/	.	.	2cc\ 2ee\	.	2ccc\	.	2C/	-men.	2c\	-men	2g\	-men	1ee\	-men.	2ee\	2ccc\
2r	.	.	2r	.	2r	.	2r	.	2r	.	2r	.	.	.	2r	2r
!LO:TX:a:i:t=Volti Subito Lauda Jerusalem D(omi)num	!	!	!	!	!	!	!	!	!	!	!	!	!	!	!	!
==	==	==	==	==	==	==	==	==	==	==	==	==	==	==	==	==
*-	*-	*-	*-	*-	*-	*-	*-	*-	*-	*-	*-	*-	*-	*-	*-	*-
!!!system-decoration: [(s1,s2)][(s3,s4,s5,s6)][(s7,s8)][(s9)]
!!!EED: Leszek Kubiak
!!!EST: 2020-07-02
!!!ENC: Krzysztof Stępień
!!!END: 2020-02-21
